!!!COM: Mozart, Wolfgang Amadeus
!!!CDT: 1756/01/27/-1791/12/05/
!!!CNT: German
!!!OTL: Sonata No. 15 in C major
!!!ONB: Piano Sonata No. 16 in NMA
!!!SCT1: K 545
!!!OMV: 3
!!!OMD: Rondo: Allegretto
!!!ODT: 1788///
**kern	**kern	**dynam
*staff2	*staff1	*staff1/2
*>[A,A,B]	*>[A,A,B]	*>[A,A,B]
*>norep[A,B]	*>norep[A,B]	*>norep[A,B]
*>A	*>A	*>A
*clefF4	*clefG2	*clefG2
*k[]	*k[]	*k[]
*C:	*C:	*C:
*M2/4	*M2/4	*M2/4
*MM112	*MM112	*MM112
4r	8ee' 8gg'L	mf
.	8ee' 8gg'J	.
=1	=1	=1
8A' 8c'L	8cc' 8ee'	.
8A' 8c'J	8r	.
8F' 8A'	8dd' 8ff'L	.
8r	8dd' 8ff'J	.
=2	=2	=2
8G' 8B'L	8b 8dd	.
8G' 8B'J	8r	.
8E' 8G'	(16ccLL	p
.	16dd	.
8r	16ee	.
.	16ccJJ	.
=3	=3	=3
(4.F	16aLL	.
.	16b	.
.	16cc	.
.	16cc#JJ	.
.	16ddLL	.
.	16ee	.
8D	16ff	.
.	16ddJJ	.
=4	=4	=4
8G)	16ccnLL	.
.	16b	.
8r	16a	.
.	16gJJ)	.
4r	8ee' 8gg'L	f
.	8ee' 8gg'J	.
=5	=5	=5
8A' 8c'L	8cc' 8ee'	.
8A' 8c'J	8r	.
8D' 8F'	8ff' 8aa'L	.
8r	8ff' 8aa'J	.
=6	=6	=6
8G' 8B'L	8b' 8dd'	.
8G' 8B'J	8r	.
8C' 8E'	(16aaLL	.
.	16gg	.
8r	16ff	.
.	16eeJJ	.
=7	=7	=7
4.F 4.A	16cc#LL	.
.	16dd	.
.	16ee	.
.	16ffJJ	.
.	16aLL	.
.	16ccn	.
8G 8f	16b	.
.	16ddJJ	.
=8	=8	=8
8c' 8e'L	8cc')	.
8C'J	8r	.
=:|!	=:|!	=:|!
*>B	*>B	*>B
*clefG2	*	*
!LO:TX:i:t=legato	!	!
16cLL	(16eeLL	mf
16g	16ff#	.
16e	16gg)	.
16gJJ	(16ggJJ	.
=9	=9	=9
16BLL	16aaLL	.
16g	16gg	.
16d	16ff#	.
16gJJ	16eeJJ)	.
*clefF4	*	*
16F#LL	16dd'LL	.
16d	16dd'	.
16A	16dd'	.
16dJJ	16dd'JJ	.
=10	=10	=10
16GLL	(16eeLL	.
16d	16dd	.
16B	16cc	.
16dJJ	16bJJ)	.
16BBLL	(16eeeLL	.
16G	16ddd	.
16D	16ccc	.
16GJJ	16bbJJ	.
=11	=11	=11
16CLL	16gg#LL	.
16A	16aa	.
16E	16bb	.
16AJJ	16cccJJ	.
16C#LL	16eeLL	.
16A	16ff#	.
16E	16ggn	.
16AJJ	16aaJJ	.
=12	=12	=12
8D	16ggLL	>
.	16ff#	.
8r	16ee	.
.	16ddJJ)	]
4r	8bb' 8ddd'L	p
.	8bb' 8ddd'J	.
*clefG2	*	*
=13	=13	=13
8e' 8g'L	8gg' 8bb'	.
8e' 8g'J	8r	.
8c' 8e'	8aa' 8ccc'L	.
8r	8aa' 8ccc'J	.
=14	=14	=14
8d' 8f#'L	8ff#' 8aa'	.
8d' 8f#'J	8r	.
8B' 8d'	(16ggLL	.
.	16aa	.
8r	16bb	.
.	16ggJJ	.
*clefF4	*	*
=15	=15	=15
*^	*	*
(4.G	(4C	16dd#LL	.
.	.	16ee	.
.	.	16gg	.
.	.	16eeJJ	.
.	4D)	16ddnLL	.
.	.	16b	.
8F#	.	16cc	.
.	.	16aJJ	.
*v	*v	*	*
=16	=16	=16
8G'L)	8g)	.
8GG'J	8r	.
4r	(16gLL<	.
.	16a	.
.	16b	.
.	16ccJJ	.
=17	=17	=17
8G' 8B'L	8dd')	.
8GG'J	8r	.
4r	(16bLL	.
.	16cc	.
.	16dd	.
.	16eeJJ	.
=18	=18	=18
8G' 8B'L	8ffn')	.
8GG'J	8r	.
4r	(16ddLL	.
.	16ee	.
.	16ff	.
.	16ggJJ	.
=19	=19	=19
2r	8aaL)	.
.	8aa-'	.
.	8gg'	.
.	8ff#'J	.
=20	=20	=20
2r	8ffn'	.
.	8r	.
.	8ee' 8gg'L	mf
.	8ee' 8gg'J	.
=21	=21	=21
8A' 8c'L	8cc' 8ee'	.
8A' 8c'J	8r	.
8F' 8A'	8dd' 8ff'L	.
8r	8dd' 8ff'J	.
=22	=22	=22
8G' 8B'L	8b' 8dd'	.
8G' 8B'J	8r	.
8E' 8G'	(16ccLL	p
.	16dd	.
8r	16ee	.
.	16ccJJ	.
=23	=23	=23
(4.F	16aLL	.
.	16b	.
.	16cc	.
.	16cc#JJ	.
.	16ddLL	.
.	16ee	.
8D	16ff	.
.	16ddJJ	.
=24	=24	=24
8G)	16ccnLL	.
.	16b	.
8r	16a	.
.	16gJJ)	.
4r	8ee' 8gg'L	f
.	8ee' 8gg'J	.
=25	=25	=25
8A' 8c'L	8cc' 8ee'	.
8A' 8c'J	8r	.
8D' 8F'	8ff' 8aa'L	.
8r	8ff' 8aa'J	.
=26	=26	=26
8G' 8B'L	8b' 8dd'	.
8G' 8B'J	8r	.
8C' 8E'	(16aaLL	.
.	16gg	.
8r	16ff	.
.	16eeJJ	.
=27	=27	=27
4.F (4.A	16cc#LL	.
.	16dd	.
.	16ee	.
.	16ffJJ	.
.	16aLL	.
.	16ccn	.
8G 8f)	16b	.
.	16ddJJ	.
=28	=28	=28
8c' 8e'L	8cc')	.
8C'J	8r	.
8c' 8e'L	4r	p
8c' 8e'J	.	.
=29	=29	=29
8A' 8c'	(16eeLL	.
.	16dd#	.
8r	16ff	.
.	16eeJJ)	.
8B' 8d'L	4r	.
8B' 8d'J	.	.
=30	=30	=30
8G#' 8B'	(16eeLL	.
.	16dd#	.
8r	16ff	.
.	16eeJJ)	.
4r	8ee' 8ccc'L	.
.	8ee' 8ccc'J	.
=31	=31	=31
(16eLL	8cc' 8aa'	.
16d#	.	.
16f	8r	.
16eJJ)	.	.
4r	8ddn' 8bb'L	.
.	8dd' 8bb'J	.
=32	=32	=32
(16eLL	8b' 8gg#'	.
16d#	.	.
16f	8r	.
16eJJ)	.	.
*clefG2	*	*
4c 4e	(16aaLL	mf
.	16ee	.
.	16cc	.
.	16aJJ	.
=33	=33	=33
4d 4f	16ccLL	.
.	16b-)	.
.	16b-'	.
.	16b-'JJ	.
4e 4g	(16ddLL	.
.	16cc#)	.
.	16cc#'	.
.	16cc#'JJ	.
=34	=34	=34
*^	*	*
2a	8fL	(16eeLL	.
.	.	16dd)	.
.	8c#J	(16ff	.
.	.	16eeJJ)	.
.	8dL	(16ggLL	.
.	.	16ff)	.
.	8eJ	(16ff	.
.	.	16eeJJ)	.
*v	*v	*	*
=35	=35	=35
8f 8a	(16eeLL	.
.	16dd#JJ)	.
8r	(4cccz	.
8f 8a	.	.
8r	8dd#)	.
*clefF4	*	*
=36	=36	=36
(16ELL	8ee	f
16e	.	.
16G#	8r	.
16eJJ	.	.
16BLL	(16bbLL	.
16e	16gg#	.
16G#	16ee	.
16eJJ	16ddnJJ	.
=37	=37	=37
16ELL	16ccLL	.
16e	16ee	.
16A	16aa	.
16eJJ	16gg#JJ	.
16cLL	16aaLL	.
16e	16ee	.
16A	16cc	.
16eJJ	16aJJ	.
=38	=38	=38
16ELL	16g#LL	.
16e	16b	.
16G#	16ee	.
16eJJ	16gg#JJ	.
16BLL	16bbLL	.
16e	16gg#	.
16G#	16ee	.
16eJJ	16ddJJ	.
=39	=39	=39
16ELL	16ccLL	.
16e	16ee	.
16A	16aa	.
16eJJ	16gg#JJ	.
16cLL	16aaLL	.
16e	16ee	.
16A	16cc	.
16eJJ	16aJJ	.
=40	=40	=40
8E)	8e)	.
8r	8r	.
4r	8cc' 8ee'L	p
.	8cc' 8ee'J	.
=41	=41	=41
(16eLL	8a' 8cc'	.
16d#	.	.
16f	8r	.
16eJJ)	.	.
4r	8b' 8dd'L	.
.	8b' 8dd'J	.
=42	=42	=42
(16eLL	8g#' 8b'	.
16d#	.	.
16f	8r	.
16eJJ)	.	.
8E' 8c'L	4r	.
8E' 8c'J	.	.
=43	=43	=43
8C' 8A'	(16eLL	.
.	16d#	.
8r	16f	.
.	16eJJ)	.
8D' 8B'L	4r	.
8D' 8B'J	.	.
=44	=44	=44
8BB' 8G#'	(16eeeLL	sfp
.	16ddd#	.
8r	16fff	.
.	16eeeJJ	.
4G# 4B	16dddnLL	.
.	16ccc#	.
.	16eee	.
.	16dddJJ)	.
=45	=45	=45
*^	*	*
4ryy	8A 8cL	(16dddLL	.
.	.	16cccn)	.
.	8B 8dJ	(16ccc	.
.	.	16bbJJ)	.
*clefG2	*clefG2	*	*
4e	8cL	(16bbLL	.
.	.	16aa)	.
.	8c#J	(16aa	.
.	.	16ggJJ)	.
=46	=46	=46	=46
2a	8dL	(16ggLL	<
.	.	16ff)	.
.	8e	(16ff	.
.	.	16eeJJ)	.
.	8f	(16eeLL	.
.	.	16dd)	.
.	8eJ	(16dd	[
.	.	16ccJJ)	.
=47	=47	=47	=47
4d 4f	4ryy	(16b-LL	>
.	.	16ff	.
.	.	16dd	.
.	.	16b-JJ	]
*clefF4	*clefF4	*	*
(8cL	4E	8aL	p
8BnJ)	.	8g#J)	.
*v	*v	*	*
=48	=48	=48
(16ALL	8a	.
16c	.	.
16e	8r	.
16cJJ	.	.
16ELL	(16g#LL	.
16B	16dd	.
16d	16b	.
16BJJ	16g#JJ	.
=49	=49	=49
16ALL	8a)	.
16c	.	.
16e	8r	.
16cJJ	.	.
16ELL	(16g#LL	.
16B	16dd	.
16d	16b	.
16BJJ	16g#JJ	.
=50	=50	=50
16ALL	8a)	.
16c	.	.
16e	8r	.
16cJJ	.	.
16ELL	16g#LL	.
16B	(16dd	.
16d	16b	.
16BJJ	16g#JJ	.
=51	=51	=51
16ALL	16aLL>	<
16c	16ee	.
16e	16cc	.
16cJJ	16aJJ	.
16GnLL	16bLL	.
16d	16ff	.
16f	16dd	.
16dJJ)	16bJJ)	.
=52	=52	=52
4r;	4r;	.
!	!LO:TX:i:t=poco	!
4r	8ee' 8gg'L	.
.	8ee' 8gg'J	f
=53	=53	=53
8A' 8c'L	8cc' 8ee'	.
8A' 8c'J	8r	.
8F' 8A'	8dd' 8ff'L	.
8r	8dd' 8ff'J	.
=54	=54	=54
8G' 8B'L	8b' 8dd'	.
8G' 8B'J	8r	.
8E' 8G'	(16ccLL	p
.	16dd	.
8r	16ee	.
.	16ccJJ	.
=55	=55	=55
(4.F	16aLL	.
.	16b	.
.	16cc	.
.	16cc#JJ	.
.	16ddLL	.
.	16ee	.
8D	16ff	.
.	16ddJJ	.
=56	=56	=56
8G)	16ccnLL	.
.	16b	.
8r	16a	.
.	16gJJ)	.
4r	8ee' 8gg'L	f
.	8ee' 8gg'J	.
=57	=57	=57
8A' 8c'L	8cc' 8ee'	.
8A' 8c'J	8r	.
8D' 8F'	8ff' 8aa'L	.
8r	8ff' 8aa'J	.
=58	=58	=58
8G' 8B'L	8b' 8dd'	.
8G' 8B'J	8r	.
8C' 8E'	(16aaLL	.
.	16gg	.
8r	16ff	.
.	16eeJJ	.
=59	=59	=59
4.F (4.A	16cc#LL	.
.	16dd	.
.	16ee	.
.	16ffJJ	.
.	16aLL	.
.	16ccn	.
8G 8f)	16b	.
.	16ddJJ	.
=60	=60	=60
8c' 8e'L	8cc')	.
8C'J	8r	.
!LO:TX:i:t=legato	!	!
16FLL	(16bLL	.
16B	16ff	.
16G	16dd	.
16BJJ	16bJJ	.
=61	=61	=61
16ELL	16aaLL	.
16c	16gg	.
16G	16ff	.
16cJJ	16eeJJ	.
16FLL	16ddLL	.
16B	16ff	.
16G	16dd	.
16BJJ	16bJJ	.
=62	=62	=62
16ELL	16aaLL	.
16c	16gg	.
16G	16ff)	.
16cJJ	16eeJJ	.
16FLL	(16dddLL	.
16d	16ccc	.
16A	16bb	.
16dJJ	16aaJJ)	.
=63	=63	=63
16GLL	(16aaLL	.
16e	16gg)	.
16c	16ff'	.
16eJJ	16ee'JJ	.
16GLL	(16eeLL	.
16f	16dd)	.
16d	16cc'	.
16fJJ	16b'JJ	.
*clefG2	*	*
=64	=64	=64
16cLL	(8ddL	.
16g	.	.
16e	8ccJ)	.
16gJJ	.	.
*clefF4	*	*
16FLL	(16bLL	.
16B	16ff	.
16G	16dd	.
16BJJ	16bJJ	.
=65	=65	=65
16ELL	16aaLL	.
16c	16gg	.
16G	16ff	.
16cJJ	16eeJJ	.
16FLL	16ddLL	.
16B	16ff	.
16G	16dd	.
16BJJ	16bJJ	.
=66	=66	=66
16ELL	16aaLL	.
16c	16gg	.
16G	16ff	.
16cJJ	16eeJJ)	.
16FLL	(16dddLL	.
16d	16ccc	.
16A	16bb	.
16dJJ	16aaJJ)	.
=67	=67	=67
16GLL	(16aaLL	.
16e	16gg)	.
16c	16ff'	.
16eJJ	16ee'JJ	.
16GLL	(16eeLL	.
16f	16dd)	.
16d	16cc'	.
16fJJ	16b'JJ	.
=68	=68	=68
(16cLL	(16ccLL	f
16e	16ee	.
16G	16g	.
16cJJ	16ccJJ	.
16ELL	16eLL	.
16G	16g	.
16C	16c	.
16EJJ	16eJJ	.
=69	=69	=69
8G)	16gLL	.
.	16cc)	.
8r	16cc' 16ee'	.
.	16ee' 16gg'JJ	.
8GG	16ee (16ggLL	.
.	16dd 16ff)	.
8r	16cc' 16ee'	.
.	16b' 16dd'JJ	.
=70	=70	=70
(16cLL	(16ccLL	.
16e	16ee	.
16G	16g	.
16cJJ	16ccJJ	.
16ELL	16eLL	.
16G	16g	.
16C	16c	.
16EJJ	16eJJ	.
=71	=71	=71
8G)	16gLL	.
.	16cc)	.
8r	16cc' 16ee'	.
.	16ee' 16gg'JJ	.
8GG	16ee (16ggLL	.
.	16dd 16ff)	.
8r	16cc' 16ee'	.
.	16b' 16dd'JJ	.
=72	=72	=72
8CC' 8C'L	8cc'L	.
8EE' 8E'	8ee' 8gg' 8ccc'J	.
8GG' 8G'	8e' 8cc'L	.
8EE' 8E'J	8e' 8cc'J	.
=73	=73	=73
4CC 4C	4e 4cc	.
4r	4r	.
==	==	==
*-	*-	*-
!!!RDF**kern: > = above
!!!RDF**kern: < = below
!!!YOR: Alte Mozart-Ausgabe, Band 20, Breitkopf &amp; H&auml;rtel 1877-1883.
!!!YOY: 1878
!!!YEC: 2018 Craig Stuart Sapp
!!!YEM: Licence: (CC BY-NC-SA 4.0) https://creativecommons.org/licenses/by-nc-sa/4.0
!!!YER: 2018
!!!ENC: Craig Stuart Sapp
!!!END: 2009/09/24
!!!EED: Craig Stuart Sapp
!!!EEV: 2018/06/20
!!!EFL: 63/69
!!!AGN: piano sonata
!!!AFR: rondo
!!!title: @{OTL}, @{SCT1}, mvmt. @{OMV}
